images_sukapura_svg/cmd/lc_stylenewbyexample.svg

<svg viewBox="0 0 24 24" xmlns="http://www.w3.org/2000/svg"><path d="m9.8964844 4-7.8964844 16h2.3476562c.2450593 0 .4626205-.068532.6523438-.205078.1897233-.144578.327106-.305715.4140625-.482422l1.4941406-3.216797h2.6835938c.1901569-1.154066 1.2082091-2.064453 2.4082031-2.064453h2.052734v-2.53125c0-.515766.170306-.997646.453125-1.396484l-1.537109-6.103516zm1.2109376 2.7832031c.05534.3935744.110681.7583538.166016 1.0957031.06324.3293173.122401.6181916.177734.8671876l1.15039 5.2167972h-4.7089839l2.4199219-5.1914066c.110672-.2570282.232799-.5552287.367188-.8925782.142291-.3373493.285442-.7021287.427734-1.0957031zm2.607422 12.2167969.072265.326172c.045095.190915.134905.345292.265625.470703v-.796875z" fill="#69696e"/><path d="m16.5 10.5c-.554 0-1 .446-1 1v3.978516h-3.5c-.554 0-1 .446-1 1v.021484c0 .554.446 1 1 1h3.5v4c0 .554.446 1 1 1s1-.446 1-1v-4h4.013672c.554 0 1-.446 1-1v-.02148c0-.554-.446-1-1-1h-4.013672v-3.97852c0-.554-.446-1-1-1z" fill="#32d74b" stroke="#1ec337"/></svg>

<?xml version="1.0" encoding="UTF-8" standalone="no"?>
<svg
   xmlns:dc="http://purl.org/dc/elements/1.1/"
   xmlns:cc="http://creativecommons.org/ns#"
   xmlns:rdf="http://www.w3.org/1999/02/22-rdf-syntax-ns#"
   xmlns:svg="http://www.w3.org/2000/svg"
   xmlns="http://www.w3.org/2000/svg"
   xmlns:sodipodi="http://sodipodi.sourceforge.net/DTD/sodipodi-0.dtd"
   xmlns:inkscape="http://www.inkscape.org/namespaces/inkscape"
   viewBox="0 0 24 24"
   version="1.1"
   id="svg10"
   sodipodi:docname="lc_stylenewbyexample.svg"
   inkscape:version="0.92.3 (unknown)"
   inkscape:export-filename="/home/rizmut/Dokumen/Rizmut/Github/libreoffice-style-sukapura/images_sukapura/cmd/lc_stylenewbyexample.png"
   inkscape:export-xdpi="96"
   inkscape:export-ydpi="96">
  <metadata
     id="metadata16">
    <rdf:RDF>
      <cc:Work
         rdf:about="">
        <dc:format>image/svg+xml</dc:format>
        <dc:type
           rdf:resource="http://purl.org/dc/dcmitype/StillImage" />
        <dc:title />
      </cc:Work>
    </rdf:RDF>
  </metadata>
  <defs
     id="defs14">
    <clipPath
       clipPathUnits="userSpaceOnUse"
       id="clipPath836">
      <rect
         style="opacity:1;fill:#32d74b;fill-opacity:1;stroke:#0a84ff;stroke-width:7;stroke-miterlimit:4;stroke-dasharray:none;stroke-opacity:1"
         id="rect838"
         width="72.1968"
         height="67.306976"
         x="169.41798"
         y="-802.66772" />
    </clipPath>
  </defs>
  <sodipodi:namedview
     pagecolor="#ffffff"
     bordercolor="#666666"
     borderopacity="1"
     objecttolerance="10"
     gridtolerance="10"
     guidetolerance="10"
     inkscape:pageopacity="0"
     inkscape:pageshadow="2"
     inkscape:window-width="1366"
     inkscape:window-height="706"
     id="namedview12"
     showgrid="true"
     inkscape:zoom="19.666666"
     inkscape:cx="2.9058802"
     inkscape:cy="8.2610552"
     inkscape:window-x="0"
     inkscape:window-y="0"
     inkscape:window-maximized="1"
     inkscape:current-layer="svg10"
     inkscape:snap-global="false">
    <inkscape:grid
       type="xygrid"
       id="grid840"
       spacingx="0.5"
       spacingy="0.5"
       empspacing="2" />
  </sodipodi:namedview>
  <path
     style="fill:#69696e;fill-opacity:1;stroke:none"
     d="M 9.8964844 4 L 2 20 L 4.3476562 20 C 4.5927155 20 4.8102767 19.931468 5 19.794922 C 5.1897233 19.650344 5.327106 19.489207 5.4140625 19.3125 L 6.9082031 16.095703 L 9.5917969 16.095703 C 9.7819538 14.941637 10.800006 14.03125 12 14.03125 L 14.052734 14.03125 L 14.052734 11.5 C 14.052734 10.984234 14.22304 10.502354 14.505859 10.103516 L 12.96875 4 L 9.8964844 4 z M 11.107422 6.7832031 C 11.162762 7.1767775 11.218103 7.5415569 11.273438 7.8789062 C 11.336678 8.2082235 11.395839 8.4970978 11.451172 8.7460938 L 12.601562 13.962891 L 7.8925781 13.962891 L 10.3125 8.7714844 C 10.423172 8.5144562 10.545299 8.2162557 10.679688 7.8789062 C 10.821979 7.5415569 10.96513 7.1767775 11.107422 6.7832031 z M 13.714844 19 L 13.787109 19.326172 C 13.832204 19.517087 13.922014 19.671464 14.052734 19.796875 L 14.052734 19 L 13.714844 19 z "
     id="path2-3" />
  <path
     inkscape:connector-curvature="0"
     id="rect4"
     d="m 16.5,10.5 c -0.554,0 -1,0.446 -1,1 v 3.978516 H 12 c -0.554,0 -1,0.446 -1,1 V 16.5 c 0,0.554 0.446,1 1,1 h 3.5 v 4 c 0,0.554 0.446,1 1,1 0.554,0 1,-0.446 1,-1 v -4 h 4.013672 c 0.554,0 1,-0.446 1,-1 v -0.02148 c 0,-0.554 -0.446,-1 -1,-1 H 17.5 V 11.5 c 0,-0.554 -0.446,-1 -1,-1 z"
     style="fill:#32d74b;fill-opacity:1;stroke:#1ec337;stroke-opacity:1" />
</svg>
